dist/static/img/context/res-4.svg

<svg width="80" height="80" viewBox="0 0 80 80" fill="none" xmlns="http://www.w3.org/2000/svg">
<rect width="80" height="80" rx="40" fill="#1F5AFF"/>
<g clip-path="url(#clip0_1115_4147)">
<path d="M30.3394 40.6738C29.9511 40.6738 29.6362 40.9885 29.6362 41.377V42.231C28.5888 42.379 27.7803 43.2808 27.7803 44.3685C27.7803 45.559 28.7489 46.5276 29.9394 46.5276H30.7392C31.1543 46.5276 31.4921 46.8654 31.4921 47.2805C31.4921 47.6956 31.1543 48.0334 30.7392 48.0334H29.8371C29.5646 48.0334 29.3289 47.858 29.2506 47.597C29.139 47.225 28.7469 47.0138 28.375 47.1256C28.0031 47.2372 27.792 47.6291 27.9036 48.0011C28.1423 48.7966 28.8247 49.3497 29.6361 49.4289V50.272C29.6361 50.6604 29.951 50.9751 30.3393 50.9751C30.7276 50.9751 31.0424 50.6604 31.0424 50.272V49.4179C32.0899 49.27 32.8983 48.3681 32.8983 47.2804C32.8983 46.0899 31.9296 45.1212 30.7391 45.1212H29.9393C29.5242 45.1212 29.1864 44.7835 29.1864 44.3684C29.1864 43.9532 29.5242 43.6155 29.9393 43.6155H30.6539C30.9264 43.6155 31.1621 43.7908 31.2404 44.0518C31.3519 44.4238 31.7438 44.6348 32.1158 44.5233C32.4877 44.4118 32.6989 44.0198 32.5873 43.6479C32.3674 42.9145 31.77 42.3877 31.0423 42.2475V41.3769C31.0425 40.9885 30.7277 40.6738 30.3394 40.6738Z" fill="white"/>
<path d="M33.251 56.7695H27.4268C27.0384 56.7695 26.7236 57.0842 26.7236 57.4727C26.7236 57.8611 27.0384 58.1758 27.4268 58.1758H33.251C33.6393 58.1758 33.9541 57.8611 33.9541 57.4727C33.9541 57.0842 33.6393 56.7695 33.251 56.7695Z" fill="white"/>
<path d="M33.251 53.8604H27.4268C27.0384 53.8604 26.7236 54.1751 26.7236 54.5635C26.7236 54.9519 27.0384 55.2666 27.4268 55.2666H33.251C33.6393 55.2666 33.9541 54.9519 33.9541 54.5635C33.9541 54.1751 33.6393 53.8604 33.251 53.8604Z" fill="white"/>
<path d="M61.7046 54.2087C61.7046 53.7423 61.5606 53.3092 61.315 52.9509C62.9905 51.7133 62.1263 48.9259 59.9918 48.9259H53.9712C54.5295 46.9397 54.4437 44.8648 53.7156 42.481C53.0457 40.2815 49.5809 40.7923 49.7065 43.193C49.8442 45.8436 48.6055 46.768 46.8909 48.0473C46.3976 48.4155 45.8662 48.8126 45.3334 49.2792C45.2126 49.0659 44.9841 48.9218 44.7215 48.9218H42.509L42.506 31.2634C42.506 31.0769 42.4318 30.8981 42.3 30.7662L33.5634 22.0305C33.4315 21.8987 33.2527 21.8246 33.0662 21.8246H30.8576V16.7031C30.8576 16.3147 30.5428 16 30.1544 16C29.7661 16 29.4513 16.3147 29.4513 16.7031V21.8245H27.2425C27.056 21.8245 26.8772 21.8986 26.7453 22.0304L18.0087 30.7661C17.8769 30.8979 17.8027 31.0767 17.8027 31.2633V47.2046C17.8027 47.593 18.1175 47.9078 18.5059 47.9078C18.8942 47.9078 19.209 47.593 19.209 47.2046V31.5545L27.5336 23.2308H29.4513V27.7176C27.7933 28.0458 26.5392 29.5107 26.5392 31.2636C26.5392 33.257 28.161 34.8788 30.1545 34.8788C32.1479 34.8788 33.7697 33.257 33.7697 31.2636C33.7697 29.5106 32.5155 28.0457 30.8576 27.7175V23.2308H32.775L41.0997 31.5545V47.3947H39.5941V37.088C39.5941 36.6996 39.2793 36.3849 38.8909 36.3849H31.6862C31.2979 36.3849 30.9831 36.6996 30.9831 37.088C30.9831 37.4764 31.2979 37.7911 31.6862 37.7911H38.1878V47.3947H35.9851C35.5967 47.3947 35.2819 47.7094 35.2819 48.0978V59.6819H22.1211V37.7911H28.6227C29.011 37.7911 29.3258 37.4764 29.3258 37.088C29.3258 36.6996 29.011 36.3849 28.6227 36.3849H21.4179C21.0296 36.3849 20.7148 36.6996 20.7148 37.088V60.385C20.7148 60.7734 21.0296 61.0881 21.4179 61.0881H35.2821V62.5937H19.2092V50.2684C19.2092 49.88 18.8944 49.5653 18.506 49.5653C18.1177 49.5653 17.8029 49.88 17.8029 50.2684V63.2969C17.8029 63.6853 18.1177 64 18.506 64H41.803H41.806C42.1943 64 42.5091 63.6853 42.5091 63.2969V62.544H44.7217C45.11 62.544 45.4248 62.2292 45.4248 61.8408V61.35C46.1263 61.4391 46.6638 61.6127 47.1792 62.0077C47.6297 62.3535 48.1863 62.5441 48.7465 62.5441H51.5881C51.9764 62.5441 52.2912 62.2293 52.2912 61.8409C52.2912 61.4525 51.9764 61.1378 51.5881 61.1378H48.7465C48.4944 61.1378 48.2419 61.0506 48.0352 60.8919C47.1858 60.2411 46.2936 60.0258 45.425 59.9331V51.1454C46.1655 50.3434 46.961 49.7498 47.7322 49.1744C49.5606 47.8099 51.2877 46.5211 51.1109 43.1197C51.0717 42.3685 52.1602 42.2003 52.3707 42.8912C53.1194 45.3426 53.1095 47.4023 52.3394 49.3731C52.2202 49.9233 52.4384 50.243 52.9944 50.332H59.9919C61.0563 50.332 61.0584 51.9784 59.9919 51.9784H58.0935C57.7051 51.9784 57.3903 52.2931 57.3903 52.6815C57.3903 53.0699 57.7051 53.3846 58.0935 53.3846H59.4753C60.5392 53.3846 60.5397 55.0318 59.4753 55.0318H58.0935C57.7051 55.0318 57.3903 55.3466 57.3903 55.735C57.3903 56.1234 57.7051 56.4381 58.0935 56.4381H58.9681C60.0322 56.4381 60.0321 58.0844 58.9681 58.0844H57.5853C57.197 58.0844 56.8822 58.3991 56.8822 58.7875C56.8822 59.1759 57.197 59.4906 57.5853 59.4906H58.3494C59.4136 59.4906 59.4135 61.1378 58.3494 61.1378H54.6528C54.2645 61.1378 53.9497 61.4525 53.9497 61.8409C53.9497 62.2293 54.2645 62.5441 54.6528 62.5441H58.3494C60.0203 62.5441 61.1009 60.4639 60.2214 59.1057C61.1253 58.4882 61.4198 56.8913 60.8044 55.9989C61.3573 55.5847 61.6574 54.988 61.7046 54.2087ZM32.3636 31.2637C32.3636 32.4817 31.3726 33.4726 30.1546 33.4726C28.9366 33.4726 27.9456 32.4818 27.9456 31.2637C27.9456 30.2915 28.5772 29.4645 29.4514 29.1701V31.2637C29.4514 31.6521 29.7662 31.9668 30.1545 31.9668C30.5428 31.9668 30.8577 31.6521 30.8577 31.2637V29.1701C31.732 29.4644 32.3636 30.2914 32.3636 31.2637ZM36.6884 62.5937V48.8009H41.0999V62.5937H36.6884ZM44.0184 61.1377H42.5091V50.3279H44.0184V61.1377Z" fill="white"/>
<path d="M38.8975 52.3516C38.5091 52.3516 38.1943 52.0368 38.1943 51.6484C38.1943 51.2601 38.5091 50.9453 38.8975 50.9453C39.2858 50.9453 39.6006 51.2601 39.6006 51.6484C39.6006 52.0368 39.2859 52.3516 38.8975 52.3516Z" fill="white"/>
</g>
<defs>
<clipPath id="clip0_1115_4147">
<rect width="48" height="48" fill="white" transform="translate(16 16)"/>
</clipPath>
</defs>
</svg>

<svg width="80" height="80" viewBox="0 0 80 80" fill="none" xmlns="http://www.w3.org/2000/svg"><rect width="80" height="80" rx="40" fill="#1F5AFF"/><g clip-path="url(#clip0_1115_4147)" fill="#fff"><path d="M30.34 40.674a.703.703 0 00-.704.703v.854a2.162 2.162 0 00-1.856 2.137c0 1.191.969 2.16 2.16 2.16h.8a.754.754 0 010 1.505h-.903a.609.609 0 01-.586-.436.703.703 0 10-1.347.404 2.004 2.004 0 001.732 1.428v.843a.703.703 0 001.406 0v-.854a2.162 2.162 0 001.856-2.138c0-1.19-.968-2.159-2.159-2.159h-.8a.754.754 0 010-1.506h.715c.272 0 .508.176.586.437a.703.703 0 101.347-.404 2.003 2.003 0 00-1.545-1.4v-.871a.703.703 0 00-.703-.703zm2.911 16.096h-5.824a.703.703 0 100 1.406h5.824a.703.703 0 100-1.407zm0-2.91h-5.824a.703.703 0 100 1.407h5.824a.703.703 0 100-1.407z"/><path d="M61.705 54.209c0-.467-.144-.9-.39-1.258 1.675-1.238.811-4.025-1.323-4.025h-6.02c.557-1.986.472-4.061-.256-6.445-.67-2.2-4.135-1.689-4.01.712.138 2.65-1.1 3.575-2.815 4.854-.493.369-1.025.766-1.558 1.232a.702.702 0 00-.611-.357h-2.213l-.003-17.659a.704.704 0 00-.206-.497l-8.737-8.735a.703.703 0 00-.497-.206h-2.208v-5.122a.703.703 0 10-1.407 0v5.122h-2.209a.703.703 0 00-.497.205l-8.736 8.736a.703.703 0 00-.206.497v15.942a.703.703 0 101.406 0v-15.65l8.325-8.324h1.917v4.487a3.62 3.62 0 00-2.912 3.546 3.62 3.62 0 003.615 3.615 3.62 3.62 0 003.616-3.615 3.621 3.621 0 00-2.912-3.546V23.23h1.917l8.325 8.323v15.84h-1.506V37.089a.703.703 0 00-.703-.703h-7.205a.703.703 0 100 1.406h6.502v9.604h-2.203a.703.703 0 00-.703.703v11.584h-13.16v-21.89h6.5a.703.703 0 100-1.407h-7.204a.703.703 0 00-.703.703v23.297c0 .388.315.703.703.703h13.864v1.506H19.21V50.268a.703.703 0 10-1.406 0v13.029c0 .388.315.703.703.703h23.3a.703.703 0 00.703-.703v-.753h2.213a.703.703 0 00.703-.703v-.491c.701.09 1.239.263 1.754.658a2.59 2.59 0 001.567.536h2.842a.703.703 0 000-1.406h-2.842a1.17 1.17 0 01-.71-.246c-.85-.65-1.742-.866-2.611-.959v-8.788c.74-.802 1.536-1.395 2.307-1.97 1.829-1.365 3.556-2.654 3.379-6.055-.04-.752 1.05-.92 1.26-.229.748 2.452.738 4.511-.032 6.482-.119.55.1.87.655.959h6.998c1.064 0 1.066 1.646 0 1.646h-1.898a.703.703 0 100 1.407h1.381c1.064 0 1.065 1.647 0 1.647h-1.382a.703.703 0 100 1.406h.875c1.064 0 1.064 1.646 0 1.646h-1.383a.703.703 0 100 1.407h.764c1.065 0 1.065 1.647 0 1.647h-3.696a.703.703 0 100 1.406h3.696c1.671 0 2.752-2.08 1.872-3.438.904-.618 1.199-2.215.583-3.107.553-.414.853-1.011.9-1.79zM32.364 31.264a2.211 2.211 0 01-2.21 2.209 2.211 2.211 0 01-2.208-2.21c0-.972.631-1.799 1.505-2.093v2.094a.703.703 0 101.407 0V29.17a2.212 2.212 0 011.506 2.094zm4.324 31.33V48.8H41.1v13.793h-4.412zm7.33-1.456H42.51v-10.81h1.51v10.81z"/><path d="M38.898 52.352a.703.703 0 110-1.407.703.703 0 010 1.407z"/></g><defs><clipPath id="clip0_1115_4147"><path fill="#fff" transform="translate(16 16)" d="M0 0h48v48H0z"/></clipPath></defs></svg>
